packages/kaspersky-hexa-ui-icons/src/iconsSVGs/24/ChromeColor.svg

<svg width="24" height="24" viewBox="0 0 24 24" fill="none" xmlns="http://www.w3.org/2000/svg">
<path d="M12.0004 17C14.7618 17 17.0008 14.7614 17.0008 11.9996C17.0008 9.23779 14.7622 6.9992 12.0004 6.9992C9.23857 6.9992 6.99999 9.23779 6.99999 11.9996C6.99999 14.7614 9.23857 17 12.0004 17Z" fill="white"/>
<path d="M7.66973 14.5006L3.34025 7.0016C2.46233 8.52175 2 10.2462 2 12.0016C2 13.757 2.46194 15.4814 3.33985 17.0016C4.21777 18.5217 5.48024 19.7838 7.00078 20.6613C8.52132 21.5388 10.2457 22.0004 12.0012 22L16.3307 14.5006V14.4994C15.8923 15.2599 15.261 15.8915 14.501 16.3307C13.7409 16.7698 12.8787 17.0012 12.0008 17.0012C11.1229 17.0012 10.2607 16.7702 9.50019 16.3315C8.73972 15.8927 8.10849 15.2611 7.66973 14.5006Z" fill="url(#paint0_linear_21654_2183)"/>
<path d="M16.3307 14.5006L12.0012 22C13.7566 22.0004 15.4806 21.5381 17.0008 20.6602C18.5209 19.7826 19.7834 18.5202 20.6609 17C21.5385 15.4799 22.0004 13.7551 22 11.9996C21.9996 10.2442 21.5373 8.51979 20.659 7.00004H12L11.9988 7.00082C12.8767 7.00043 13.7393 7.231 14.4994 7.66977C15.2599 8.10853 15.8911 8.73976 16.3303 9.49984C16.7694 10.2599 17.0004 11.1225 17.0004 12.0004C17.0008 12.8779 16.7698 13.7401 16.3307 14.5006Z" fill="url(#paint1_linear_21654_2183)"/>
<path d="M12.0004 15.9591C14.1867 15.9591 15.9591 14.1868 15.9591 12.0004C15.9591 9.81407 14.1867 8.04175 12.0004 8.04175C9.81405 8.04175 8.04173 9.81407 8.04173 12.0004C8.04173 14.1868 9.81405 15.9591 12.0004 15.9591Z" fill="#1A73E8"/>
<path d="M12 7.00004H20.659C19.7814 5.4795 18.5197 4.21737 16.9996 3.33985C15.4794 2.46194 13.755 2 11.9996 2C10.2442 2 8.51975 2.46233 6.9996 3.34024C5.47945 4.21816 4.21738 5.48145 3.34025 7.0016L7.66973 14.5006L7.67091 14.5014C7.23175 13.7413 7 12.8791 7 12.0012C7 11.1232 7.23057 10.2606 7.66933 9.50057C8.1081 8.74011 8.73933 8.10887 9.4998 7.67011C10.2599 7.23096 11.1221 6.99964 12 7.00004Z" fill="url(#paint2_linear_21654_2183)"/>
<defs>
<linearGradient id="paint0_linear_21654_2183" x1="17.4672" y1="21.1671" x2="6.18836" y2="0.721246" gradientUnits="userSpaceOnUse">
<stop stop-color="#1E8E3E"/>
<stop offset="1" stop-color="#34A853"/>
</linearGradient>
<linearGradient id="paint1_linear_21654_2183" x1="-0.914254" y1="22.0354" x2="8.02599" y2="-1.18867" gradientUnits="userSpaceOnUse">
<stop stop-color="#FCC934"/>
<stop offset="1" stop-color="#FBBC04"/>
</linearGradient>
<linearGradient id="paint2_linear_21654_2183" x1="3.34028" y1="8.25066" x2="20.6597" y2="8.25066" gradientUnits="userSpaceOnUse">
<stop stop-color="#D93025"/>
<stop offset="1" stop-color="#EA4335"/>
</linearGradient>
</defs>
</svg>

<svg xmlns="http://www.w3.org/2000/svg" width="24" height="24" fill="none" viewBox="0 0 24 24"><path fill="#fff" d="M12.0004 17c2.7614 0 5.0004-2.2386 5.0004-5.0004s-2.2386-5.0004-5.0004-5.0004S7 9.2378 7 11.9996 9.2386 17 12.0004 17"/><path fill="url(#a)" d="m7.6697 14.5006-4.3294-7.499A9.9979 9.9979 0 0 0 12.0011 22l4.3295-7.4994v-.0012a4.999 4.999 0 0 1-6.8305 1.8321 4.996 4.996 0 0 1-1.8305-1.8309"/><path fill="url(#b)" d="M16.3307 14.5006 12.0012 22a9.99 9.99 0 0 0 4.9996-1.3398A9.998 9.998 0 0 0 20.659 7H12l-.0012.0008a5 5 0 0 1 2.5006.669 4.999 4.999 0 0 1 2.501 4.3306 4.995 4.995 0 0 1-.6697 2.5002"/><path fill="#1a73e8" d="M12.0004 15.9591c2.1863 0 3.9587-1.7723 3.9587-3.9587s-1.7724-3.9587-3.9587-3.9587-3.9587 1.7724-3.9587 3.9587 1.7723 3.9587 3.9587 3.9587"/><path fill="url(#c)" d="M12 7h8.659a9.9977 9.9977 0 0 0-17.3187.0016l4.3294 7.499.0012.0008A5 5 0 0 1 7 12.0012c0-.878.2306-1.7406.6693-2.5006A4.995 4.995 0 0 1 9.4998 7.67 4.993 4.993 0 0 1 12 7.0001"/><defs><linearGradient id="a" x1="17" x2="6" y1="21" y2="1" gradientUnits="userSpaceOnUse"><stop stop-color="#1e8e3e"/><stop offset="1" stop-color="#34a853"/></linearGradient><linearGradient id="b" x1="-1" x2="8" y1="22" y2="-1" gradientUnits="userSpaceOnUse"><stop stop-color="#fcc934"/><stop offset="1" stop-color="#fbbc04"/></linearGradient><linearGradient id="c" x1="3" x2="21" y1="8" y2="8" gradientUnits="userSpaceOnUse"><stop stop-color="#d93025"/><stop offset="1" stop-color="#ea4335"/></linearGradient></defs></svg>
